X: 186
T:Washer Woman,The. JaW.185
M:6/8
Q:130
S:James Winder Ms, Lancashire, 1835-41
R:Jig
O:England
A:Wyresdale,Lancashire
N:Bars 34in the B strain might be improved by replacing the "b" with
N:"a"..CGP
H:1/8
Z:vmp.Chris Partington, Aug 2004
K:G
B2d cBA|G2G A2G|B2d cBA|G2G G3|!
B2d cBA|G2G A2G|B2d cBA|G2G G3:|!
|:G2G B2d|G2G B2d|"sic"d2d f2b|d2d f2b|!
g2b g2b|afd dBd|e2g e2g|dBG GAB|!
c2e B2d|A2A g2a|bge e2d|dgg H"H"g2:|]
